packages/elvis-assets-icons/icons/svg/src/check_shield.svg

<svg width="24" height="24" viewBox="0 0 24 24" fill="none" xmlns="http://www.w3.org/2000/svg">
<g clip-path="url(#clip0)">
<path fill-rule="evenodd" clip-rule="evenodd" d="M19.2149 4.06938C19.5399 4.32616 19.5952 4.7978 19.3384 5.12282L11.499 15.0453C11.3261 15.2703 11.1026 15.4512 10.8465 15.5733C10.5881 15.6965 10.3041 15.7563 10.0179 15.7478C9.73182 15.7392 9.45186 15.6626 9.20131 15.5242C8.95349 15.3873 8.7415 15.1939 8.58251 14.9597L6.13662 11.4845C5.89822 11.1458 5.97954 10.678 6.31827 10.4395C6.657 10.2011 7.12486 10.2825 7.36326 10.6212L9.81326 14.1022L9.82262 14.1158C9.84921 14.1554 9.88487 14.1881 9.92663 14.2112C9.96838 14.2343 10.015 14.247 10.0627 14.2485C10.1104 14.2499 10.1578 14.2399 10.2008 14.2194C10.2439 14.1988 10.2814 14.1683 10.3103 14.1304L10.3184 14.1198L10.3184 14.1199L18.1614 4.19292C18.4182 3.8679 18.8899 3.81259 19.2149 4.06938Z" fill="black"/>
<path fill-rule="evenodd" clip-rule="evenodd" d="M1.40901 0.657911C1.83097 0.235954 2.40326 -0.00109863 3 -0.00109863H21C21.2955 -0.00109863 21.5881 0.0570995 21.861 0.170172C22.134 0.283245 22.3821 0.448979 22.591 0.657911C22.7999 0.866843 22.9657 1.11488 23.0787 1.38786C23.1918 1.66084 23.25 1.95342 23.25 2.2489V11.2489C23.25 12.6361 22.7312 14.0078 21.9757 15.2768C21.2176 16.5504 20.1924 17.769 19.1089 18.8645C16.9428 21.0548 14.4722 22.8248 13.2144 23.6386C12.853 23.8737 12.4312 23.9989 12 23.9989C11.5684 23.9989 11.1462 23.8735 10.7845 23.6379C9.5264 22.8238 7.05663 21.0542 4.89111 18.8645C3.80765 17.769 2.78242 16.5504 2.02428 15.2768C1.26885 14.0078 0.75 12.6361 0.75 11.2489V2.2489C0.75 1.65216 0.987053 1.07987 1.40901 0.657911ZM3 1.4989C2.80109 1.4989 2.61032 1.57792 2.46967 1.71857C2.32902 1.85922 2.25 2.04999 2.25 2.2489V11.2489C2.25 12.2682 2.6354 13.3709 3.31319 14.5095C3.98826 15.6436 4.92523 16.7658 5.95764 17.8098C8.02327 19.8985 10.3992 21.602 11.6004 22.3792L11.6028 22.3807C11.7209 22.4578 11.8589 22.4989 12 22.4989C12.1411 22.4989 12.2791 22.4578 12.3972 22.3807L12.3996 22.3792C13.6008 21.602 15.9767 19.8985 18.0424 17.8098C19.0748 16.7658 20.0117 15.6436 20.6868 14.5095C21.3646 13.3709 21.75 12.2682 21.75 11.2489V2.2489C21.75 2.15041 21.7306 2.05288 21.6929 1.96189C21.6552 1.87089 21.6 1.78822 21.5303 1.71857C21.4607 1.64893 21.378 1.59368 21.287 1.55599C21.196 1.5183 21.0985 1.4989 21 1.4989H3Z" fill="black"/>
</g>
<defs>
<clipPath id="clip0">
<rect width="24" height="24" fill="white"/>
</clipPath>
</defs>
</svg>

<svg width="24" height="24" fill="none" xmlns="http://www.w3.org/2000/svg"><g clip-path="url(#clip0)" fill-rule="evenodd" clip-rule="evenodd" fill="#000"><path d="M19.215 4.07a.75.75 0 01.123 1.053L11.5 15.045a1.8 1.8 0 01-2.916-.085l-2.446-3.476a.75.75 0 011.226-.863l2.45 3.481.01.014a.3.3 0 00.487.014l.008-.01 7.843-9.927a.75.75 0 011.054-.124z"/><path d="M1.409.658A2.25 2.25 0 013-.002h18a2.25 2.25 0 012.25 2.25v9c0 1.388-.519 2.76-1.274 4.029-.758 1.273-1.784 2.492-2.867 3.588-2.166 2.19-4.637 3.96-5.895 4.774a2.227 2.227 0 01-2.43-.001c-1.258-.814-3.727-2.584-5.893-4.774-1.083-1.095-2.109-2.314-2.867-3.587C1.27 14.007.75 12.637.75 11.249v-9c0-.597.237-1.17.659-1.591zM3 1.498a.75.75 0 00-.75.75v9c0 1.02.385 2.123 1.063 3.261.675 1.135 1.612 2.257 2.645 3.3 2.065 2.09 4.441 3.793 5.642 4.57l.003.002a.727.727 0 00.794 0l.003-.002c1.2-.777 3.577-2.48 5.642-4.57 1.033-1.043 1.97-2.165 2.645-3.3.678-1.138 1.063-2.24 1.063-3.26v-9a.75.75 0 00-.75-.75H3z"/></g><defs><clipPath id="clip0"><path fill="#fff" d="M0 0h24v24H0z"/></clipPath></defs></svg>
